X:1
T:James Gibb editions
T:Il mio martir - Monteverdi
T:#
%%score [ 1 2 3 ]
L:1/8
Q:1/4=108
M:4/4
K:F
V:1 treble nm="Soprano I" snm="S I"
V:2 treble nm="Soprano II" snm="S II"
V:3 treble nm="Alto" snm="A"
V:1
"^Il mio martir""^Claudio Monteverdi\n(1567-1643)" z2 d2 d2 _e2 | d6 g2- | gg f2 (_e2 dc | %3
w: Il mio mar-|tir ten\-|* go ce- la\- * *|
 B3 A/G/ ^F2) G2 |[M:4/4] ^F4 G4 | B2 Bc d2 B2 | A6 d2- | dc B2 A4 | B2 d2 G2 A2 | B2 c2 d4 | %10
w: * * * * to~~al|co- re,|Se lo di- mo- stri,~~ohi|mè, po\-|* co mi gio-|va; Nes- sun cre-|d'il mio mal|
 A2 B4 A2 | G4 ^F4 | z2 A2 B2 c2 | B4 A2 d2 | G2 A2 B2 c2 | d4 A2 B2- | B2 A2 (G4- | G2 ^FE F4) | %18
w: se non ch'il|pro- va,|se non ch'il|pro- va, nes-|sun cre- d'll mio|mal se non|* ch'il pro\-||
 G8 :| %19
w: va.|
V:2
 z4 z2 B2 | B2 A2 B2 B2- | BB F2 (GABc | d3 c/B/ A2) G2 |[M:4/4] A4 =B4 | z4 d2 de | f2 d2 c2 B2- | %7
w: Il|mio mar- tir ten\-|* go ce- la\- * * *|* * * * to~~al|co- re,|Se lo di-|mo- stri,~~ohi- mè, po\-|
 Bc d2 c4 | d4 z4 | z8 | z2 d2 G2 A2 | B2 c2 d2 A2 | B2 A2 G4- | G4 ^F2 A2 | B2 A2 G4- | G4 ^F4 | %16
w: * co mi gio-|va;||Nes- sun cre-|d'il mio mal se|non ch'il pro\-|* va, se|non ch'il pro\-|* va,|
 z2 A2 B2 c2 | (B2 AG A4) | =B8 :| %19
w: se non ch'il|pro\- * * *|va.|
V:3
 z4 z2 G2 | G2 ^F2 G2 _E2- | E!courtesy!_E D2 (C2 B,A, | G,A,B,C D2) _E2 |[M:4/4] D4 G,4 | %5
w: Il|mio mar- tir ten\-|* go ce- la\- * *|* * * * * to~~al|co- re,|
 G2 GA B2 G2 | F6 G2- | GA B2 F4 | B,4 z2 D2 | G,2 A,2 B,2 C2 | D2 D2 _E2 F2 | _E4 D4 | %12
w: Se lo di- mo stri,~~ohi-|mè, po\-|* co mi gio-|va; Nes-|sun cre- d'il mio|mal se non ch'il|pro- va,|
 z2 D2 G,2 A,2 | B,2 C2 D4 | z2 D2 G,2 A,2 | B,2 C2 D2 D2 | _E2 F2 (E2 DC | D8) | G,8 :| %19
w: nes- sun cre-|d'il mio mal,|nes- sun cre-|d'il mio mal se|non ch'il pro\- * *||va.|

